src/lib/packages/icons/src/assets/filled/folder-edit.svg

<svg xmlns="http://www.w3.org/2000/svg" width="24" height="24" fill="none"><path fill="currentColor" d="M18 7h-5l-3-3H6C4 4 3 5 3 7v10c0 2 1 3 3 3h12c2 0 3-1 3-3v-7c0-2-1-3-3-3Zm-7.78 10.5H8v-2.22l3.98-4 2.24 2.24-4 3.98Zm5.52-5.49-.82.81-2.24-2.24.81-.82c.35-.35.91-.35 1.26 0l.99.99c.35.35.35.91 0 1.26Z"/></svg>

<svg width="24" height="24" viewBox="0 0 24 24" fill="none" xmlns="http://www.w3.org/2000/svg">
<path d="M18 7H13L10 4H6C4 4 3 5 3 7V17C3 19 4 20 6 20H18C20 20 21 19 21 17V10C21 8 20 7 18 7ZM10.22 17.5H8V15.28L11.98 11.28L14.22 13.52L10.22 17.5ZM15.74 12.01L14.9199 12.82L12.6799 10.58L13.49 9.76001C13.84 9.41001 14.4 9.41001 14.75 9.76001L15.74 10.75C16.09 11.1 16.09 11.66 15.74 12.01Z" fill="currentColor"/>
</svg>
